X: 32
T:Coronation Day
M:4/4
L:1/8
K:F
c2|f2 e2 f2 c2|f4 c3 c|d2 BA G2 c2|A2 F4 c2|f2 e2 f2 c2|f4 c3 c|d2 BA G2 c2| A2 F4:|
|:A2|B3 c d2 cB|A3 G F2 A2|B3 c d2 cB|A3 B c2 BA|G2 A2 B2 c2| d3 c f2 A2|B2 A2 G2 c2 |A2 F6:|

